src/standard/euro.svg

<?xml version="1.0" encoding="UTF-8"?><svg id="uuid-6d0a932f-eb6b-4c27-b67b-d7274f91cd5d" xmlns="http://www.w3.org/2000/svg" width="36" height="36" viewBox="0 0 36 36"><metadata><?xpacket begin="﻿" id="W5M0MpCehiHzreSzNTczkc9d"?>
<x:xmpmeta xmlns:x="adobe:ns:meta/" x:xmptk="Adobe XMP Core 8.0-c001 1.000000, 0000/00/00-00:00:00        ">
   <rdf:RDF xmlns:rdf="http://www.w3.org/1999/02/22-rdf-syntax-ns#">
      <rdf:Description rdf:about=""
            xmlns:xmp="http://ns.adobe.com/xap/1.0/"
            xmlns:dc="http://purl.org/dc/elements/1.1/"
            xmlns:cq="http://www.day.com/jcr/cq/1.0"
            xmlns:tiff="http://ns.adobe.com/tiff/1.0/">
         <xmp:rhcc-effective-on>2023-12-08T17:44:53.197Z</xmp:rhcc-effective-on>
         <xmp:rhcc-metadata-complete-moderator>pending</xmp:rhcc-metadata-complete-moderator>
         <xmp:rhcc-translation-id>TRA19949434-45eb-42dc-aab9-83dc397792d0</xmp:rhcc-translation-id>
         <xmp:CreateDate>2023-12-08T17:44:53.197Z</xmp:CreateDate>
         <xmp:rhcc-effective-on-set-on-upload>true</xmp:rhcc-effective-on-set-on-upload>
         <xmp:rhcc-metadata-complete-uploader>pending</xmp:rhcc-metadata-complete-uploader>
         <xmp:rhcc-file-last-modified>2023-12-08T17:45:17.694Z</xmp:rhcc-file-last-modified>
         <xmp:rhcc-audience>rhcc-audience:internal</xmp:rhcc-audience>
         <xmp:rhcc-rights-restricted>no</xmp:rhcc-rights-restricted>
         <xmp:rhcc-derivative-id>DER19949434-45eb-42dc-aab9-83dc397792d0</xmp:rhcc-derivative-id>
         <xmp:rhcc-notify-portal-subscribers-on-change>yes</xmp:rhcc-notify-portal-subscribers-on-change>
         <dc:format>image/svg+xml</dc:format>
         <dc:modified>2024-02-09T20:36:57.440Z</dc:modified>
         <cq:lastReplicationAction_scene7>Activate</cq:lastReplicationAction_scene7>
         <cq:lastReplicationAction_publish>Activate</cq:lastReplicationAction_publish>
         <cq:lastReplicated_publish>2024-02-09T22:24:31.053Z</cq:lastReplicated_publish>
         <cq:lastReplicatedBy>workflow-process-service</cq:lastReplicatedBy>
         <cq:lastReplicationAction>Activate</cq:lastReplicationAction>
         <cq:lastReplicatedBy_publish>workflow-process-service</cq:lastReplicatedBy_publish>
         <cq:isDelivered>true</cq:isDelivered>
         <cq:lastReplicated>2024-02-09T22:24:31.053Z</cq:lastReplicated>
         <cq:lastReplicatedBy_scene7>workflow-process-service</cq:lastReplicatedBy_scene7>
         <cq:lastReplicated_scene7>2024-02-09T22:24:31.053Z</cq:lastReplicated_scene7>
         <tiff:ImageLength>36</tiff:ImageLength>
         <tiff:ImageWidth>36</tiff:ImageWidth>
      </rdf:Description>
   </rdf:RDF>
</x:xmpmeta>
                                                                                                    
                                                                                                    
                                                                                                    
                                                                                                    
                                                                                                    
                                                                                                    
                                                                                                    
                                                                                                    
                                                                                                    
                                                                                                    
                                 
<?xpacket end="w"?></metadata>
<path d="m28.64258,28.97754c-2.24805,1.56836-4.89062,2.39746-7.64258,2.39746-6.11737,0-11.27649-4.13312-12.8623-9.75h17.8623c.34521,0,.625-.28027.625-.625s-.27979-.625-.625-.625H7.84869c-.13916-.77222-.22369-1.56329-.22369-2.375,0-1.1676.16583-2.29468.44824-3.375h17.92676c.34521,0,.625-.28027.625-.625s-.27979-.625-.625-.625H8.46643c1.88824-5.099,6.78607-8.75,12.53357-8.75,2.75195,0,5.39453.8291,7.64258,2.39746.2832.19824.67285.12988.87012-.15527.19727-.2832.12793-.67285-.15527-.87012-2.4585-1.71484-5.34863-2.62207-8.35742-2.62207-6.44702,0-11.9223,4.19788-13.86346,10h-3.13654c-.34521,0-.625.28027-.625.625s.27979.625.625.625h2.78381c-.25781,1.08551-.40881,2.21173-.40881,3.375,0,.81042.08319,1.6001.21057,2.375h-2.58557c-.34521,0-.625.28027-.625.625s.27979.625.625.625h2.84827c1.61902,6.31329,7.34052,11,14.15173,11,3.00879,0,5.89893-.90723,8.35742-2.62207.2832-.19727.35254-.58691.15527-.87012-.19824-.28516-.5874-.35352-.87012-.15527Z" stroke-width="0"/></svg>

<svg xmlns="http://www.w3.org/2000/svg" viewBox="0 0 36 36">
  <path d="M28.643 28.978A13.291 13.291 0 0 1 21 31.375c-6.117 0-11.276-4.133-12.862-9.75H26a.625.625 0 0 0 0-1.25H7.849A13.36 13.36 0 0 1 7.625 18c0-1.168.166-2.295.448-3.375H26a.625.625 0 0 0 0-1.25H8.466c1.889-5.099 6.787-8.75 12.534-8.75 2.752 0 5.395.83 7.643 2.397a.625.625 0 0 0 .715-1.025A14.538 14.538 0 0 0 21 3.375c-6.447 0-11.922 4.198-13.863 10H4a.625.625 0 0 0 0 1.25h2.784A14.57 14.57 0 0 0 6.375 18c0 .81.083 1.6.21 2.375H4a.625.625 0 0 0 0 1.25h2.848c1.62 6.313 7.34 11 14.152 11 3.009 0 5.899-.907 8.357-2.622a.625.625 0 0 0-.714-1.025Z"/>
</svg>
